Sources/FrostedUI/Resources/Icons.xcassets/locationPin16.imageset/location-pin-16.svg

<svg width="16" height="16" viewBox="0 0 16 16" fill="none" xmlns="http://www.w3.org/2000/svg" data-fui-icon="true">
  <path
    d="M8 0C11.2239 0 14.5 2.35185 14.5 6.25C14.5 8.85731 12.9065 11.2848 11.4434 12.9834C10.6977 13.849 9.95398 14.5615 9.39746 15.0576C9.11871 15.3061 8.88552 15.5015 8.7207 15.6357C8.63845 15.7027 8.57293 15.7543 8.52734 15.79C8.50453 15.8079 8.48619 15.8224 8.47363 15.832C8.46755 15.8367 8.4625 15.8401 8.45898 15.8428C8.45722 15.8441 8.45617 15.8458 8.45508 15.8467L8.45312 15.8477L8 15.25L8.45215 15.8477C8.18447 16.0502 7.81553 16.0502 7.54785 15.8477L8 15.25L7.54688 15.8477L7.54492 15.8467C7.54383 15.8458 7.54278 15.8441 7.54102 15.8428C7.5375 15.8401 7.53245 15.8367 7.52637 15.832C7.51381 15.8224 7.49547 15.8079 7.47266 15.79C7.42707 15.7543 7.36155 15.7027 7.2793 15.6357C7.11448 15.5015 6.88129 15.3061 6.60254 15.0576C6.04602 14.5615 5.30226 13.849 4.55664 12.9834C3.0935 11.2848 1.5 8.85731 1.5 6.25C1.5 2.35185 4.7761 0 8 0ZM8 1.5C5.42491 1.5 3 3.34916 3 6.25C3 8.29216 4.28151 10.3649 5.69336 12.0039C6.38514 12.807 7.07903 13.4726 7.60059 13.9375C7.74934 14.0701 7.88429 14.1855 8 14.2832C8.11571 14.1855 8.25066 14.0701 8.39941 13.9375C8.92097 13.4726 9.61486 12.807 10.3066 12.0039C11.7185 10.3649 13 8.29216 13 6.25C13 3.34916 10.5751 1.5 8 1.5ZM8 3.5C9.65685 3.5 11 4.84315 11 6.5C11 8.15685 9.65685 9.5 8 9.5C6.34315 9.5 5 8.15685 5 6.5C5 4.84315 6.34315 3.5 8 3.5ZM8 5C7.17157 5 6.5 5.67157 6.5 6.5C6.5 7.32843 7.17157 8 8 8C8.82843 8 9.5 7.32843 9.5 6.5C9.5 5.67157 8.82843 5 8 5Z"
    fill="currentColor"
  />
</svg>

<svg xmlns="http://www.w3.org/2000/svg" width="16" height="16" fill="none" data-fui-icon="true" viewBox="0 0 16 16"><path fill="currentColor" d="M8 0c3.224 0 6.5 2.352 6.5 6.25 0 2.607-1.594 5.035-3.057 6.733a22.5 22.5 0 0 1-2.722 2.653l-.194.154-.053.042-.015.01-.004.005h-.002L8 15.25l.452.598a.75.75 0 0 1-.904 0L8 15.25l-.453.598-.002-.001-.004-.004-.015-.011-.053-.042-.194-.154a22.451 22.451 0 0 1-2.723-2.652C3.095 11.283 1.5 8.856 1.5 6.25 1.5 2.352 4.776 0 8 0m0 1.5c-2.575 0-5 1.85-5 4.75 0 2.042 1.282 4.115 2.693 5.754A21 21 0 0 0 8 14.284q.175-.148.4-.347a21 21 0 0 0 1.907-1.933C11.719 10.364 13 8.292 13 6.25c0-2.9-2.425-4.75-5-4.75m0 2a3 3 0 1 1 0 6 3 3 0 0 1 0-6M8 5a1.5 1.5 0 1 0 0 3 1.5 1.5 0 0 0 0-3"/></svg>
